www/assets/icons/stacked_bar_chart.svg

<svg xmlns="http://www.w3.org/2000/svg" width="24" height="24" viewBox="0 0 24 24" fill='currentColor'><path d="M8 9H4v11h4zm0-5H4v4h4zm6 3h-4v4h4zm6 3h-4v4h4zm0 5h-4v5h4zm-6-3h-4v8h4z"/></svg>

<svg width="24" height="24" viewBox="0 0 24 24" xmlns="http://www.w3.org/2000/svg" fill='currentColor'><path d="M8 9H4V20H8V9Z"/><path d="M8 4H4V8H8V4Z"/><path d="M14 7H10V11H14V7Z"/><path d="M20 10H16V14H20V10Z"/><path d="M20 15H16V20H20V15Z"/><path d="M14 12H10V20H14V12Z"/></svg>
